assets/img/services-list-item-5.svg

<svg xmlns="http://www.w3.org/2000/svg" width="32" height="28"><path fill-rule="evenodd" fill="#666D89" d="M16 24c-1.057 0-2.087-.082-3.086-.228-.684.833-3.628 3.704-6.753 4.216.004-.013-.161.012-.255.012a.905.905 0 01-.832-1.264h-.002C5.661 25.723 7 23.793 7 22c0-.029.008-.047.008-.074C2.779 19.766 0 16.127 0 12 0 5.373 7.163 0 16 0c8.836 0 16 5.373 16 12s-7.164 12-16 12zm0-22C8.28 2 2 6.486 2 12c0 3.207 2.212 6.252 5.918 8.145a2 2 0 011.081 1.965c-.02 1.034-.326 2.038-.716 2.932 1.44-.856 2.657-2.018 3.085-2.539a2 2 0 011.836-.71A19.29 19.29 0 0016 22c7.72 0 14-4.486 14-10S23.72 2 16 2zm0 4C10.673 6 6 8.804 6 12a.5.5 0 01-1 0c0-3.794 5.037-7 11-7a.5.5 0 010 1z"/></svg>

<svg 
 xmlns="http://www.w3.org/2000/svg"
 xmlns:xlink="http://www.w3.org/1999/xlink"
 width="32px" height="28px">
<path fill-rule="evenodd"  fill="rgb(102, 109, 137)"
 d="M16.000,24.000 C14.943,24.000 13.913,23.918 12.914,23.772 C12.230,24.605 9.286,27.476 6.161,27.988 C6.165,27.975 6.000,28.000 5.906,28.000 C5.405,28.000 5.000,27.595 5.000,27.094 C5.000,26.967 5.027,26.846 5.074,26.736 C5.074,26.736 5.073,26.736 5.072,26.736 C5.661,25.723 7.000,23.793 7.000,22.000 C7.000,21.971 7.008,21.953 7.008,21.926 C2.779,19.766 0.000,16.127 0.000,12.000 C0.000,5.373 7.163,0.000 16.000,0.000 C24.836,0.000 32.000,5.373 32.000,12.000 C32.000,18.627 24.836,24.000 16.000,24.000 ZM16.000,2.000 C8.280,2.000 2.000,6.486 2.000,12.000 C2.000,15.207 4.212,18.252 7.918,20.145 C8.587,20.486 9.008,21.175 9.008,21.926 C9.008,21.982 9.005,22.046 8.999,22.110 C8.979,23.144 8.673,24.148 8.283,25.042 C9.723,24.186 10.940,23.024 11.368,22.503 C11.751,22.036 12.320,21.771 12.914,21.771 C13.010,21.771 13.107,21.778 13.204,21.793 C14.143,21.931 15.083,22.000 16.000,22.000 C23.720,22.000 30.000,17.514 30.000,12.000 C30.000,6.486 23.720,2.000 16.000,2.000 ZM16.000,6.000 C10.673,6.000 6.000,8.804 6.000,12.000 C6.000,12.276 5.776,12.500 5.500,12.500 C5.224,12.500 5.000,12.276 5.000,12.000 C5.000,8.206 10.037,5.000 16.000,5.000 C16.276,5.000 16.500,5.224 16.500,5.500 C16.500,5.777 16.276,6.000 16.000,6.000 Z"/>
</svg>
